icon/pk/application-effect.svg

<svg viewBox="0 0 48 48" fill="none" xmlns="http://www.w3.org/2000/svg" height="1em" width="1em">
  <path d="M24 40.8331C26.123 42.7333 28.9266 43.8887 32 43.8887C38.6274 43.8887 44 38.5161 44 31.8887C44 26.5878 40.5629 22.0897 35.7957 20.5015" stroke="black" stroke-width="4" stroke-linecap="round" stroke-linejoin="round"/>
  <path d="M27.1711 27.4992C27.7058 28.8588 27.9995 30.3397 27.9995 31.8891C27.9995 38.5165 22.6269 43.8891 15.9995 43.8891C9.37209 43.8891 3.99951 38.5165 3.99951 31.8891C3.99951 26.5741 7.45492 22.0662 12.2418 20.4893" stroke="black" stroke-width="4" stroke-linecap="round" stroke-linejoin="round"/>
  <path d="M24 27.8892C30.6274 27.8892 36 22.5166 36 15.8892C36 9.26174 30.6274 3.88916 24 3.88916C17.3726 3.88916 12 9.26174 12 15.8892C12 22.5166 17.3726 27.8892 24 27.8892Z" stroke="black" stroke-width="4" stroke-linecap="round" stroke-linejoin="round"/>
</svg>

<svg width="48" height="48" fill="none" xmlns="http://www.w3.org/2000/svg"><path d="M24 40.833a11.955 11.955 0 0 0 8 3.056c6.627 0 12-5.373 12-12 0-5.301-3.437-9.8-8.204-11.387" stroke="#000" stroke-width="4" stroke-linecap="round" stroke-linejoin="round"/><path d="M27.171 27.5c.535 1.359.829 2.84.829 4.39 0 6.627-5.373 12-12 12-6.628 0-12-5.373-12-12 0-5.316 3.455-9.824 8.242-11.4" stroke="#000" stroke-width="4" stroke-linecap="round" stroke-linejoin="round"/><path d="M24 27.89c6.627 0 12-5.373 12-12 0-6.628-5.373-12-12-12s-12 5.372-12 12c0 6.627 5.373 12 12 12Z" stroke="#000" stroke-width="4" stroke-linecap="round" stroke-linejoin="round"/></svg>
